X:1
T:Title
%%score { ( 1 3 ) | ( 2 4 ) }
L:1/8
M:4/4
K:Db
V:1 treble nm="Grand Piano"
V:3 treble 
V:2 bass 
V:4 bass 
V:1
 z4 z2[Q:1/4=100] [FA]>[FA] | [Fd]>[Fc] [FB]>[Fc] [FA]2 [FB]2 | [DF]2 [DF]4 [FA]>[FA] | %3
 [Fd]>[Fc] [FB]>[Fc] [FA]2 F2 | G6 G>A | [EGc]>[=DG_c] [EG=c]>[DG_c] [EG=c]2 [CEG]2 | %6
 [CGB]2 [CGB]4 [CEG]>[CEA] | [EGc]>[=DG_c] [EG=c]>[DG_c] [EG=c]2 E2 |[M:3/4] A6 | %9
[M:1/4] [CGB]>[Gc] |[M:4/4] [Fd]>[Fc] [Fd]>[Fe] [Fd]2 [FA]>[FA] | [Ac]>c B>=A B2 B>d | %12
 c2 B2 [A,FA]2 [A,EG]2 | [A,DF]6 [DFA]>[EF=A] | [DFB]>[CF=A] [DFB]>[CFA] [DFB]2 c>c | %15
 d>c d>c d2 d>d |[M:21/16] z3 [Be]3 z3/2 z3 |[M:9/8] d3 [Gc]3 [Fd]3 |] %18
V:2
 z4 z2 [D,D]>[D,D] | [D,A,]>[D,A,] [D,D]>[D,D] [D,D]2 [D,D]2 | [D,A,]2 [D,A,]4 [D,D]>[D,D] | %3
 [D,A,]>[D,A,] [D,D]>[D,D] [D,D]2 [=D,A,_C]2 | [E,A,C]6 [E,A,C]>[E,A,C] | %5
 A,,>A,, A,,>A,, A,,2 A,,2 | A,,2 A,,4 A,>A, | A,,>A,, A,,>A,, A,,2 [G,A,C]2 | %8
[M:3/4] [G,D]2 [G,C]2 F,2 |[M:1/4] E,>[E,A,] | %10
[M:4/4] [D,A,]>[D,A,] [D,A,]>[D,A,] [D,A,]2 [D,D]>[D,D] | %11
 [G,D]>[K:treble][G,DG] [G,DG]>[G,CG] [G,DG]2 [G,DG]>[G,B,G] | %12
 [A,G]2 [A,G]2[K:bass] A,,>B,, C,>A,, | D,6 D,>C, | B,,>F, B,,>F, B,,2[K:treble] [F,=A,F]>[F,A,F] | %15
 [B,F]>[F,=A,F] [B,F]>[F,A,F] [B,F]2 [_A,CF]>[A,CF] | %16
[M:21/16][K:bass] [G,B,G]3 .D3/2 z [F,C]-<[F,C]-[F,C][K:treble][G,B,G]/-[G,B,G][G,B,G]/ | %17
[M:9/8] [A,F]3[K:bass] [A,,A,]3 [D,A,]3 |] %18
V:3
 x8 | x8 | x8 | x8 | x8 | x8 | x8 | x8 |[M:3/4] z2 E2 D2 |[M:1/4] x2 |[M:4/4] x8 | x8 | x8 | x8 | %14
 x8 | x8 |[M:21/16] d3 z B,/-B,[=Af]-<[Af]-[Af]e/-ee/ |[M:9/8] x9 |] %18
V:4
 x8 | x8 | x8 | x8 | x8 | x8 | x8 | x8 |[M:3/4] x6 |[M:1/4] x2 |[M:4/4] x8 | x3/2[K:treble] x13/2 | %12
 x4[K:bass] x4 | x8 | x6[K:treble] x2 | x8 |[M:21/16][K:bass] z3 G,3 z3/2 z3[K:treble] | %17
[M:9/8] x3[K:bass] x6 |] %18

